X: 741
M: 9/8
L: 1/8
K: F
V: 1
|:\
|:\
(f/g/a)g fcf Acf | fcf Aca g2(f/e/) |\
fce fga cde | fac dfF G2A :|
V: 2 clef=bass middle=d
|:\
f3 f3 f3 | f3 c'3 c3 |\
f3 f3 f3 | f3 f3 g3 :|
|:\
f3 f3 f3 | f3 f3 g3 |\
f3 f3 f3 | f3 f3 g3 :|

